assets/Level slider/Flat/level_slider_flat.svg

<svg width="32" height="32" viewBox="0 0 32 32" fill="none" xmlns="http://www.w3.org/2000/svg">
<path d="M23.9583 2H8.0417C6.36182 2 5 3.36553 5 5.05V26.95C5 28.6345 6.36182 30 8.0417 30H23.9583C25.6382 30 27 28.6345 27 26.95V5.05C27 3.36553 25.6382 2 23.9583 2Z" fill="#BEBEBE"/>
<path d="M7 7.25C7 6.83579 7.33579 6.5 7.75 6.5H10.25C10.6642 6.5 11 6.83579 11 7.25C11 7.66421 10.6642 8 10.25 8H7.75C7.33579 8 7 7.66421 7 7.25ZM7.75 15.25C7.33579 15.25 7 15.5858 7 16C7 16.4142 7.33579 16.75 7.75 16.75H10.25C10.6642 16.75 11 16.4142 11 16C11 15.5858 10.6642 15.25 10.25 15.25H7.75ZM21.75 15.25C21.3358 15.25 21 15.5858 21 16C21 16.4142 21.3358 16.75 21.75 16.75H24.25C24.6642 16.75 25 16.4142 25 16C25 15.5858 24.6642 15.25 24.25 15.25H21.75ZM21.75 6.5C21.3358 6.5 21 6.83579 21 7.25C21 7.66421 21.3358 8 21.75 8H24.25C24.6642 8 25 7.66421 25 7.25C25 6.83579 24.6642 6.5 24.25 6.5H21.75ZM7 25.25C7 24.8358 7.33579 24.5 7.75 24.5H10.25C10.6642 24.5 11 24.8358 11 25.25C11 25.6642 10.6642 26 10.25 26H7.75C7.33579 26 7 25.6642 7 25.25ZM21.75 24.5C21.3358 24.5 21 24.8358 21 25.25C21 25.6642 21.3358 26 21.75 26H24.25C24.6642 26 25 25.6642 25 25.25C25 24.8358 24.6642 24.5 24.25 24.5H21.75Z" fill="#636363"/>
<path d="M12.5 9C12.5 7.067 14.067 5.5 16 5.5V5.5C17.933 5.5 19.5 7.067 19.5 9V23C19.5 24.933 17.933 26.5 16 26.5V26.5C14.067 26.5 12.5 24.933 12.5 23V9Z" fill="#D3D3D3"/>
<path d="M13.5 9C13.5 7.61929 14.6193 6.5 16 6.5V6.5C17.3807 6.5 18.5 7.61929 18.5 9V23C18.5 24.3807 17.3807 25.5 16 25.5V25.5C14.6193 25.5 13.5 24.3807 13.5 23V9Z" fill="#635994"/>
<path d="M11 12C11 10.8954 11.8954 10 13 10H19C20.1046 10 21 10.8954 21 12V12C21 13.1046 20.1046 14 19 14H13C11.8954 14 11 13.1046 11 12V12Z" fill="#00A6ED"/>
</svg>

<svg xmlns="http://www.w3.org/2000/svg" width="32" height="32" fill="none"><path fill="#BEBEBE" d="M23.958 2H8.042A3.046 3.046 0 0 0 5 5.05v21.9A3.046 3.046 0 0 0 8.042 30h15.916A3.046 3.046 0 0 0 27 26.95V5.05A3.046 3.046 0 0 0 23.958 2Z"/><path fill="#636363" d="M7 7.25a.75.75 0 0 1 .75-.75h2.5a.75.75 0 0 1 0 1.5h-2.5A.75.75 0 0 1 7 7.25Zm.75 8a.75.75 0 0 0 0 1.5h2.5a.75.75 0 0 0 0-1.5h-2.5Zm14 0a.75.75 0 0 0 0 1.5h2.5a.75.75 0 0 0 0-1.5h-2.5Zm0-8.75a.75.75 0 0 0 0 1.5h2.5a.75.75 0 0 0 0-1.5h-2.5ZM7 25.25a.75.75 0 0 1 .75-.75h2.5a.75.75 0 0 1 0 1.5h-2.5a.75.75 0 0 1-.75-.75Zm14.75-.75a.75.75 0 0 0 0 1.5h2.5a.75.75 0 0 0 0-1.5h-2.5Z"/><path fill="#D3D3D3" d="M12.5 9a3.5 3.5 0 1 1 7 0v14a3.5 3.5 0 1 1-7 0V9Z"/><path fill="#635994" d="M13.5 9a2.5 2.5 0 0 1 5 0v14a2.5 2.5 0 0 1-5 0V9Z"/><path fill="#00A6ED" d="M11 12a2 2 0 0 1 2-2h6a2 2 0 1 1 0 4h-6a2 2 0 0 1-2-2Z"/></svg>
